src/images/partners/safe.svg

<svg xmlns="http://www.w3.org/2000/svg" xml:space="preserve" width="311.2" height="311.2" version="1.0"><path d="M155.6 0C69.6 0 0 69.7 0 155.6c0 86 69.7 155.6 155.6 155.6 85.9 0 155.6-69.7 155.6-155.6C311.2 69.7 241.6 0 155.6 0Zm113.9 164.1h-72.2c-4.7 23.8-27.9 39.3-51.7 34.6-23.8-4.7-39.3-27.9-34.6-51.7 4.7-23.8 27.9-39.3 51.7-34.6 18.1 3.6 32.1 18.2 34.9 36.4h71.9c4.2-.2 7.8 3.1 7.9 7.4.1 4.3-3.1 7.8-7.4 7.9z"/></svg>

<svg width="312" height="312" viewBox="0 0 312 312" fill="none" xmlns="http://www.w3.org/2000/svg">
<path d="M155.6 0C69.6 0 0 69.7 0 155.6C0 241.6 69.7 311.2 155.6 311.2C241.5 311.2 311.2 241.5 311.2 155.6C311.2 69.7 241.6 0 155.6 0ZM269.5 164.1H197.3C192.6 187.9 169.4 203.4 145.6 198.7C121.8 194 106.3 170.8 111 147C115.7 123.2 138.9 107.7 162.7 112.4C180.8 116 194.8 130.6 197.6 148.8H269.5C273.7 148.6 277.3 151.9 277.4 156.2C277.5 160.5 274.3 164 270 164.1H269.5Z" fill="white"/>
</svg>
